build/img/icons/mark-address.svg

<svg width="14" height="16" viewBox="0 0 14 16" fill="none" xmlns="http://www.w3.org/2000/svg">
<path d="M12.692 3.94182C12.1902 2.43487 11.2348 1.31787 9.85059 0.620329C9.24781 0.315834 8.57978 0.126301 7.81078 0.0424089C7.03245 -0.0430363 6.32558 0.000463068 5.65134 0.174461C4.43025 0.491385 3.39093 1.12057 2.56134 2.04959C1.47074 3.26758 0.947198 4.6549 0.96118 6.30787C0.96584 6.35603 0.967394 6.41196 0.970501 6.471C0.978269 6.62324 0.98759 6.81122 1.014 6.99765C1.08546 7.53052 1.2346 8.08669 1.46919 8.69723C1.84204 9.67286 2.37491 10.6376 3.14392 11.7344C3.93001 12.8561 4.80621 13.8923 5.48201 14.6722C5.79738 15.0357 6.09566 15.3589 6.39394 15.6618C6.61454 15.8855 6.89108 16.0005 7.17382 16.0005C7.37268 16.0005 7.57464 15.943 7.76262 15.8265C7.92885 15.7255 8.09197 15.5826 8.24888 15.4023C9.32083 14.175 10.2141 12.9959 10.9816 11.7997C11.6496 10.7572 12.1436 9.79714 12.4947 8.86191C12.7899 8.07426 12.9608 7.35186 13.0198 6.65121C13.0975 5.73927 12.9872 4.82734 12.692 3.94182ZM11.9292 6.42128C11.8951 6.96347 11.7863 7.51187 11.5968 8.09911C11.3296 8.9225 10.9396 9.74743 10.3695 10.6935C9.71232 11.7841 8.90137 12.8996 7.81854 14.2046C7.65853 14.3956 7.49385 14.5805 7.32296 14.7685C7.28878 14.8058 7.24373 14.8431 7.18936 14.8804C7.18314 14.885 7.17693 14.8881 7.17382 14.8912C7.16916 14.8881 7.1645 14.885 7.15984 14.8804C7.09459 14.826 7.0309 14.7623 6.96875 14.6939C6.004 13.6018 4.98953 12.4211 4.1009 11.1782C3.3785 10.1684 2.84253 9.19592 2.46191 8.20786C2.24286 7.63926 2.11547 7.10018 2.07352 6.5611C1.98497 5.43633 2.25529 4.38613 2.87515 3.44002C3.54318 2.41934 4.45977 1.71092 5.59697 1.33341C6.05993 1.17961 6.56638 1.10348 7.13654 1.10038C7.9071 1.11746 8.57202 1.24952 9.16858 1.5043C9.98109 1.85229 10.6476 2.42711 11.1494 3.2132C11.53 3.81132 11.7692 4.49643 11.8795 5.30583C11.9339 5.71131 11.9494 6.07484 11.9292 6.42128ZM7.0107 2.81239C6.16712 2.80773 5.3251 3.16194 4.70368 3.78802C4.08537 4.40944 3.75135 5.23748 3.76378 6.12145C3.7731 6.96036 4.1444 7.79151 4.77825 8.40516C5.3919 8.99551 6.17955 9.31399 6.98429 9.29224C7.01536 9.29224 7.04488 9.29379 7.07439 9.29379C7.86981 9.29379 8.65902 8.96599 9.25402 8.38497C9.89409 7.76044 10.2436 6.92463 10.2374 6.03134C10.225 4.26806 8.77708 2.82326 7.0107 2.81239ZM7.04798 8.16747H7.04643C6.75902 8.16747 6.47472 8.10844 6.20907 7.99658C5.94341 7.88473 5.6995 7.72316 5.49288 7.51498C5.09517 7.11572 4.87612 6.59994 4.87923 6.06552C4.88544 4.6782 5.97448 3.92784 6.99516 3.92473H7.00138C7.56687 3.92473 8.09974 4.14378 8.50055 4.54459C8.89982 4.9423 9.11887 5.47051 9.11887 6.02979C9.11731 6.78326 8.78019 7.27573 8.49589 7.55848C8.10284 7.94842 7.5793 8.16902 7.04798 8.16747Z" fill="#4DA82F"/>
</svg>

<svg width="14" height="16" fill="none" xmlns="http://www.w3.org/2000/svg"><path d="M12.692 3.942C12.19 2.435 11.235 1.318 9.851.62 9.248.316 8.58.126 7.81.042 7.032-.043 6.326 0 5.65.174A6.131 6.131 0 002.56 2.05C1.471 3.268.947 4.655.961 6.308c.005.048.006.104.01.163.007.152.017.34.043.527.071.533.22 1.089.455 1.7.373.975.906 1.94 1.675 3.036.786 1.122 1.662 2.158 2.338 2.938.315.364.614.687.912.99.22.223.497.338.78.338.199 0 .4-.057.589-.174.166-.1.329-.243.486-.424a30.464 30.464 0 002.733-3.602c.668-1.043 1.162-2.003 1.513-2.938.295-.788.466-1.51.525-2.21a6.72 6.72 0 00-.328-2.71zm-.763 2.48a6.807 6.807 0 01-.332 1.677c-.267.823-.657 1.648-1.227 2.595-.658 1.09-1.469 2.206-2.551 3.51-.16.192-.325.377-.496.564a.78.78 0 01-.134.112l-.015.011a1.952 1.952 0 01-.205-.197c-.965-1.092-1.98-2.273-2.868-3.516-.723-1.01-1.258-1.982-1.64-2.97a5.788 5.788 0 01-.387-1.647 4.875 4.875 0 01.801-3.121 5.111 5.111 0 012.722-2.107 4.92 4.92 0 011.54-.233c.77.017 1.435.15 2.032.404.812.348 1.479.923 1.98 1.71.381.597.62 1.282.73 2.092.055.405.07.769.05 1.115zm-4.918-3.61a3.258 3.258 0 00-2.307.976 3.216 3.216 0 00-.94 2.333c.01.84.38 1.67 1.014 2.284.614.59 1.402.909 2.206.887l.09.002c.796 0 1.585-.328 2.18-.909.64-.625.99-1.46.983-2.354a3.258 3.258 0 00-3.226-3.219zm.037 5.355h-.002a2.22 2.22 0 01-1.554-.652 2.037 2.037 0 01-.613-1.45c.006-1.387 1.095-2.137 2.116-2.14h.006c.566 0 1.099.219 1.5.62.399.397.618.926.618 1.485a2.107 2.107 0 01-.623 1.528c-.393.39-.917.611-1.448.61z" fill="#4DA82F"/></svg>
